lib/preview/nrk-logo-preview-nrk-tegnspraak-symbol-with-bg.svg

<svg width="66" height="24" viewBox="0 0 66 24" fill="none" xmlns="http://www.w3.org/2000/svg">
<rect width="66" height="24" fill="#1767CE"/>
<path d="M6.00438 18V6.00106H9.94157V18H6.00438ZM15.2982 7.91075L17.5624 18H13.2535L10.5499 6.00106H12.9666C13.5207 5.99387 14.0584 6.18922 14.4789 6.55036C14.9 6.89635 15.1893 7.37667 15.2982 7.91075ZM18.1539 18V6.00106H22.0911V18H18.1539ZM25.0648 10.5641C24.6406 10.5682 24.2231 10.4572 23.8569 10.2429C23.4956 10.0341 23.1955 9.73393 22.9866 9.37257C22.7722 9.0063 22.6611 8.58873 22.6653 8.16429C22.6605 7.74243 22.7716 7.32735 22.9866 6.9644C23.1977 6.60696 23.4975 6.31006 23.8569 6.10249C24.2232 5.88847 24.6406 5.77748 25.0648 5.78135C25.4866 5.77681 25.9015 5.8879 26.2646 6.10249C26.6204 6.31188 26.917 6.60853 27.1264 6.9644C27.3412 7.32745 27.4523 7.74246 27.4477 8.16429C27.4517 8.5887 27.3406 9.0062 27.1264 9.37257C26.9192 9.73234 26.6223 10.0322 26.2646 10.2429C25.9015 10.4579 25.4863 10.5691 25.0643 10.5641H25.0648ZM28.056 18V6.00106H31.9935V18H28.056ZM36.9781 12.5582C36.9892 12.5698 37.0736 12.7079 37.2315 12.9722C37.3895 13.2366 37.595 13.5747 37.8483 13.9863C38.1018 14.3977 38.3693 14.8342 38.6507 15.296C38.9321 15.7577 39.197 16.1943 39.4452 16.6057C39.6925 17.0172 39.9741 17.4819 40.2901 18H35.9642C35.6937 17.5606 35.4485 17.1634 35.2288 16.8085C35.0092 16.4536 34.7757 16.0706 34.5282 15.6593C34.2802 15.2485 34.035 14.8485 33.7926 14.4594C33.5502 14.0704 33.3419 13.7296 33.1676 13.437C32.9927 13.1443 32.8715 12.9471 32.804 12.8455C32.6369 12.5934 32.538 12.3023 32.5171 12.0005C32.5338 11.7109 32.627 11.4309 32.7871 11.1891C32.8547 11.0764 32.9787 10.8764 33.1589 10.5891C33.3391 10.3018 33.5504 9.96102 33.7926 9.56669C34.0348 9.17236 34.28 8.76957 34.5282 8.35834C34.7764 7.94711 35.0099 7.56121 35.2288 7.20068C35.4489 6.84052 35.694 6.44056 35.9642 6.00078H40.2901L36.944 11.4595C36.8405 11.6215 36.7821 11.8083 36.775 12.0005C36.7861 12.2023 36.8566 12.3963 36.9775 12.5582H36.9781Z" fill="white"/>
<path fill-rule="evenodd" clip-rule="evenodd" d="M58.6122 18.4649C60.3268 16.7503 61.2901 14.4248 61.2901 12C61.2901 9.57514 60.3268 7.24962 58.6122 5.535C56.8976 3.82038 54.5721 2.85712 52.1473 2.85712C49.7224 2.85712 47.3969 3.82038 45.6823 5.535C43.9677 7.24962 43.0044 9.57514 43.0044 12C43.0044 14.4248 43.9677 16.7503 45.6823 18.4649C47.3969 20.1796 49.7224 21.1428 52.1473 21.1428C54.5721 21.1428 56.8976 20.1796 58.6122 18.4649ZM55.5155 7.96636L52.5844 9.5535L52.5855 9.55149C52.5444 9.57392 52.5138 9.6117 52.5003 9.65659C52.4869 9.70149 52.4917 9.74987 52.5138 9.79121L52.5252 9.81207C52.5476 9.85327 52.5854 9.88393 52.6303 9.89732C52.6753 9.9107 52.7237 9.90574 52.7649 9.8835L54.8489 8.75721C54.9477 8.70046 55.0648 8.68506 55.1749 8.71433C55.2849 8.74361 55.3789 8.81519 55.4364 8.91349C55.4872 9.01541 55.4956 9.13328 55.4599 9.24139C55.4241 9.3495 55.3471 9.4391 55.2455 9.49064L53.1832 10.6058C53.1367 10.6289 53.1013 10.6695 53.0846 10.7187C53.0679 10.7679 53.0713 10.8217 53.0941 10.8684C53.1207 10.913 53.1639 10.9454 53.2142 10.9584C53.2646 10.9714 53.318 10.964 53.3629 10.9378L53.9278 10.6321L53.9792 10.6035L54.9089 10.1006C55.0077 10.0439 55.1248 10.0284 55.2349 10.0576C55.345 10.0868 55.4391 10.1584 55.4967 10.2566C55.5475 10.3586 55.5559 10.4765 55.5202 10.5847C55.4844 10.6928 55.4074 10.7825 55.3058 10.8341L53.9178 11.5846L53.6947 11.7035C53.6434 11.5648 53.5451 11.4485 53.4168 11.3749C53.2886 11.3013 53.1385 11.2752 52.9929 11.3009L50.4652 11.7832C50.3917 11.8008 50.3206 11.8274 50.2535 11.8624C50.0661 11.6935 49.9093 11.4935 49.7901 11.2712C49.6199 10.9568 49.5282 10.6059 49.5227 10.2484C49.5171 9.89088 49.598 9.53733 49.7584 9.21778C49.7601 9.21492 49.7601 9.21206 49.7601 9.20921L50.8195 6.84835C50.8635 6.74329 50.9472 6.6599 51.0525 6.61638C51.1577 6.57286 51.2759 6.57275 51.3812 6.61607C51.4837 6.66627 51.5621 6.75488 51.5996 6.86264C51.637 6.97039 51.6304 7.08858 51.5812 7.1915L51.2384 7.95492L51.7927 7.65521C51.7968 7.65294 51.8009 7.65154 51.8051 7.65015C51.8098 7.64855 51.8145 7.64696 51.8192 7.64406C51.823 7.64172 51.8266 7.63912 51.8301 7.63652C51.8348 7.6331 51.8395 7.62968 51.8447 7.62692L54.0887 6.41321C54.1874 6.35639 54.3045 6.34093 54.4146 6.37022C54.5247 6.3995 54.6187 6.47114 54.6761 6.5695C54.7269 6.67141 54.7353 6.78927 54.6996 6.89739C54.6638 7.0055 54.5868 7.09509 54.4852 7.14664L52.0078 8.48635C51.9666 8.50883 51.9359 8.54673 51.9225 8.59176C51.9091 8.63678 51.9141 8.68527 51.9364 8.72664L51.9472 8.74721C51.9697 8.78846 52.0076 8.81912 52.0526 8.83251C52.0977 8.84589 52.1462 8.84091 52.1875 8.81864L55.1189 7.23321C55.2176 7.17644 55.3348 7.16098 55.4448 7.19021C55.5548 7.21943 55.6489 7.29096 55.7064 7.38921C55.7572 7.49112 55.7656 7.60899 55.7299 7.7171C55.6941 7.82522 55.6171 7.91481 55.5155 7.96636ZM52.1527 13.8912L55.1401 15.3586C55.2434 15.4061 55.3241 15.4924 55.3639 15.5989C55.4038 15.7054 55.4 15.8233 55.3532 15.9269C55.2997 16.0272 55.2086 16.1023 55.0999 16.1358C54.9912 16.1693 54.8737 16.1585 54.7729 16.1058L51.7867 14.6384C51.7446 14.6178 51.6961 14.6147 51.6517 14.6298C51.6074 14.6449 51.5709 14.6769 51.5501 14.7189L51.5395 14.7401C51.519 14.7822 51.5161 14.8307 51.5312 14.875C51.5463 14.9193 51.5784 14.9559 51.6204 14.9766L53.7452 16.0206C53.8486 16.0681 53.9289 16.1546 53.9688 16.2611C54.0087 16.3676 54.0048 16.4855 53.9581 16.5892C53.9045 16.6895 53.8135 16.7645 53.7049 16.7979C53.5962 16.8314 53.4788 16.8205 53.3781 16.7678L51.2764 15.7355C51.2306 15.711 51.177 15.7056 51.1273 15.7205C51.0776 15.7354 51.0357 15.7693 51.0109 15.8149C50.99 15.8625 50.9887 15.9163 51.0073 15.9648C51.026 16.0133 51.063 16.0525 51.1104 16.0738L52.6855 16.8478C52.7888 16.8953 52.8691 16.9817 52.909 17.0881C52.9488 17.1945 52.945 17.3124 52.8984 17.4161C52.8449 17.5164 52.7539 17.5915 52.6452 17.625C52.5366 17.6585 52.4191 17.6477 52.3184 17.5949L50.9044 16.9001C50.9044 16.9001 49.6221 16.2592 49.5901 16.2306C49.1224 15.9386 48.7797 15.4833 48.6283 14.9531C48.477 14.4228 48.5278 13.8553 48.7709 13.3604C48.9283 13.0399 49.1607 12.7622 49.4483 12.5508C49.736 12.3394 50.0704 12.2005 50.4232 12.1461C50.4247 12.1458 50.4259 12.1451 50.427 12.1443C50.4284 12.1435 50.4298 12.1426 50.4315 12.1426L52.9655 11.6384C53.0205 11.6257 53.0774 11.624 53.133 11.6333C53.1886 11.6427 53.2418 11.6629 53.2896 11.6929C53.3374 11.7228 53.3788 11.7619 53.4114 11.8079C53.4441 11.8539 53.4673 11.9059 53.4798 11.9609C53.4982 12.0733 53.4715 12.1883 53.4054 12.2811C53.3394 12.3738 53.2394 12.4367 53.1272 12.4561L52.3078 12.6192L52.8727 12.8966C52.8765 12.8985 52.8798 12.9009 52.8831 12.9034C52.8873 12.9064 52.8915 12.9096 52.8969 12.9118C52.901 12.9134 52.9049 12.9148 52.9089 12.9162C52.9145 12.9181 52.92 12.92 52.9255 12.9226L55.2112 14.0461C55.3145 14.0936 55.3948 14.1799 55.4347 14.2864C55.4745 14.3928 55.4707 14.5107 55.4241 14.6143C55.3705 14.7146 55.2794 14.7897 55.1707 14.8231C55.062 14.8565 54.9445 14.8457 54.8438 14.7929L52.3192 13.5526C52.2771 13.5321 52.2285 13.529 52.1841 13.5442C52.1397 13.5593 52.1032 13.5914 52.0824 13.6335L52.0721 13.6546C52.0516 13.6967 52.0486 13.7452 52.0637 13.7895C52.0787 13.8338 52.1107 13.8704 52.1527 13.8912Z" fill="#D4EEFC"/>
</svg>

<svg xmlns="http://www.w3.org/2000/svg" viewBox="0 0 66 24"><path fill="#1767CE" d="M0 0h66v24H0z"/><path fill="#fff" d="M6.004 18V6.001h3.938V18H6.004Zm9.294-10.09L17.562 18h-4.309L10.55 6.001h2.417a2.276 2.276 0 0 1 1.512.55c.421.345.71.826.82 1.36ZM18.154 18V6.001h3.937V18h-3.937Zm6.91-7.436a2.382 2.382 0 0 1-2.4-2.4 2.303 2.303 0 0 1 .323-1.2 2.411 2.411 0 0 1 3.278-.862c.355.21.652.507.861.862.215.363.326.778.322 1.2a2.4 2.4 0 0 1-1.183 2.079 2.302 2.302 0 0 1-1.2.321ZM28.057 18V6.001h3.938V18h-3.938Zm8.922-5.442c.011.012.096.15.253.414.158.265.364.603.617 1.014a309.436 309.436 0 0 1 1.597 2.62L40.29 18h-4.326c-.27-.44-.515-.837-.735-1.192-.22-.354-.453-.737-.7-1.149-.249-.41-.494-.81-.736-1.2-.243-.389-.451-.73-.625-1.022-.175-.293-.297-.49-.364-.591a1.748 1.748 0 0 1-.287-.845c.017-.29.11-.57.27-.812.068-.113.192-.313.372-.6s.391-.628.634-1.022c.242-.395.487-.797.735-1.209l.7-1.157.736-1.2h4.326l-3.346 5.458a1.079 1.079 0 0 0-.169.542c.011.201.082.395.203.557Z"/><path fill="#D4EEFC" fill-rule="evenodd" d="M58.612 18.465a9.143 9.143 0 1 0-12.93-12.93 9.143 9.143 0 0 0 12.93 12.93ZM55.516 7.966l-2.932 1.587.002-.002a.178.178 0 0 0-.072.24l.011.021a.177.177 0 0 0 .24.072l2.084-1.127a.432.432 0 0 1 .587.156.432.432 0 0 1-.19.578l-2.063 1.115a.196.196 0 0 0-.089.262.197.197 0 0 0 .269.07l.565-.306.051-.028.93-.503a.432.432 0 0 1 .588.156.432.432 0 0 1-.191.577l-1.388.75-.223.12a.631.631 0 0 0-.702-.403l-2.528.482a.922.922 0 0 0-.212.08 2.22 2.22 0 0 1-.495-2.645c.002-.003.002-.006.002-.009l1.06-2.36a.431.431 0 0 1 .561-.233.433.433 0 0 1 .2.575l-.343.764.555-.3a.07.07 0 0 1 .012-.005c.005-.001.01-.003.014-.006a.152.152 0 0 0 .011-.007l.015-.01 2.244-1.214a.431.431 0 0 1 .587.156.432.432 0 0 1-.19.578l-2.478 1.34a.178.178 0 0 0-.072.24l.011.02a.178.178 0 0 0 .24.072l2.932-1.586a.432.432 0 0 1 .587.156.432.432 0 0 1-.19.577Zm-3.363 5.925 2.987 1.468a.43.43 0 0 1 .213.568.43.43 0 0 1-.58.179l-2.986-1.468a.177.177 0 0 0-.237.08l-.01.022a.177.177 0 0 0 .08.237l2.125 1.044a.431.431 0 0 1 .213.568.43.43 0 0 1-.58.179l-2.102-1.033a.196.196 0 0 0-.265.08.197.197 0 0 0 .1.259l1.575.774a.431.431 0 0 1 .212.568.43.43 0 0 1-.58.179l-1.414-.695s-1.282-.64-1.314-.67a2.227 2.227 0 0 1-.142-3.68 2.217 2.217 0 0 1 .979-.406l.005-.001 2.533-.505a.43.43 0 0 1 .515.323.432.432 0 0 1-.353.495l-.82.163.566.278a.066.066 0 0 1 .01.006c.004.003.008.007.014.009a.355.355 0 0 0 .029.01l2.285 1.124a.43.43 0 0 1 .213.568.43.43 0 0 1-.58.179l-2.525-1.24a.177.177 0 0 0-.237.08l-.01.022a.177.177 0 0 0 .08.236Z" clip-rule="evenodd"/></svg>
